X: 774
T: Aird Ranters
R: strathspey
M: 4/4
K: Adorian
g/|e<a a>e g<e e>g|e<a a>e g<e d2|e<a a>e g<e e>g|c<A A>G c<A A3/2:|
B/|c>A B>A c<A A>d|c<A A>G c<A A>B|c>A B>A c<A A>d|c<A A<G A2 A3/2:|

